X: 10185
T: Dinny O'Brien's
R: reel
M: 4/4
K: Dmixolydian
fdd^c d=cAB|~c2Bd cAGE|D2FD ADFD|(3EFG AB cdeg|
fdd^c d=cAB|~c2Bd cAGE|D2FD (3EFG AB|cAGE EDDe:|
|:fdd^c defg|ad~d2 adfd|eccB cdef|~g2af gfeg|
fd~d2 ABcA|dcAd cAGE|D2FD (3EFG AB|cAGE EDDe:|

